packages/Iconly/src/ProfileIcon/index.svg

<svg xmlns="http://www.w3.org/2000/svg" width="24" height="24" viewBox="0 0 24 24"><g fill="#200E32" fill-rule="nonzero" transform="translate(3 2)"><ellipse cx="9" cy="5.556" opacity=".4" rx="5.625" ry="5.556"/><path d="M17.9902354,16.6757991 L17.9902354,16.6757991 C17.9953097,16.5967226 17.9953097,16.5174327 17.9902354,16.4383562 C17.9679741,16.1461262 17.885058,15.8607505 17.7461199,15.5981735 C17.1993012,14.5296804 15.6662559,14.0456621 14.3870907,13.7716895 C13.4744565,13.5817014 12.5471782,13.4595545 11.6139387,13.4063927 L10.6374767,13.3333333 L10.1980688,13.3333333 L9.6512501,13.3333333 L8.34279105,13.3333333 L7.79597234,13.3333333 L7.35656445,13.3333333 L6.38010248,13.4063927 C5.44686291,13.4595545 4.51958466,13.5817014 3.60695046,13.7716895 C2.32778527,14.0091324 0.794739971,14.5022831 0.247921264,15.5981735 C0.10898315,15.8607505 0.0260670984,16.1461262 0.00380576968,16.4383562 C-0.00126858989,16.5174327 -0.00126858989,16.5967226 0.00380576968,16.6757991 L0.00380576968,16.6757991 C-0.000879294659,16.7548861 -0.000879294659,16.834155 0.00380576968,16.913242 C0.0303656032,17.2029741 0.116574533,17.4851701 0.257685884,17.7442922 C0.804504591,18.8127854 2.33754989,19.2968037 3.61671508,19.5707763 C4.53104892,19.7518719 5.45762024,19.8739256 6.3898671,19.9360731 L7.36632907,20 L7.60067995,20 L7.80573696,20 L10.2078334,20 L10.4128904,20 L10.6472413,20 L11.6237033,19.9360731 C12.5559501,19.8739256 13.4825215,19.7518719 14.3968553,19.5707763 C15.6760205,19.3242009 17.2090658,18.8401826 17.7558845,17.7442922 C17.890425,17.4769528 17.9730826,17.1893744 18,16.8949772 C18.0012406,16.8218031 17.9979804,16.748623 17.9902354,16.6757991 Z"/></g></svg>

<svg xmlns="http://www.w3.org/2000/svg" viewBox="0 0 24 24">
  <g fill="#200E32" transform="translate(3 2)">
    <ellipse cx="9" cy="5.556" opacity=".4" rx="5.625" ry="5.556"/>
    <path d="M17.99 16.676a1.89 1.89 0 000-.238 2.143 2.143 0 00-.244-.84c-.547-1.068-2.08-1.552-3.359-1.826-.913-.19-1.84-.312-2.773-.366l-.977-.073H7.356l-.976.073c-.933.054-1.86.176-2.773.366-1.28.237-2.812.73-3.36 1.826a2.143 2.143 0 00-.243.84 1.89 1.89 0 000 .238 1.874 1.874 0 000 .237c.026.29.113.572.254.831.547 1.069 2.08 1.553 3.359 1.827.914.18 1.84.303 2.773.365l.976.064h3.281l.977-.064a21.707 21.707 0 002.773-.365c1.279-.247 2.812-.73 3.359-1.827.134-.267.217-.555.244-.849a1.786 1.786 0 00-.01-.22z"/>
  </g>
</svg>
